X:20021
T:Trip to Brighton
R:March
C:Trad.
O:England
Z:Paul Hardy's Session Tunebook 2015 (see www.paulhardy.net). Creative Commons cc by-nc-sa licenced.
M:2/2
L:1/8
Q:1/2=100
K:G
"G"GABc d2g2|d2BA G2AB|"Am"c2A2 "G"B2G2|"D"F2 D4F2|"C"E2C2 C2E2|c2E2 E2c2|"G"Bcd2 "D"D2F2|"G"G4 G4:|
"G"G2 D4G2|B2B2 Bcd2|"Am"c2 A4a2|"D"a2A2 "Am"ABc2|"G"B2G2 "Am"c2A2|"G"d2B2 "G"g2g2|"D"fga2 "A"A2^c2|"D"d4 d4|
"G"G2 D4G2|B2B2 Bcd2|"Am"c2 A4a2|"D"a2A2 "Am"ABc2|"G"B2G2 "Am"c2A2|"G"d2B2 "C"g2c2|"G"Bcd2 "D"D2F2|"G"G4 G4||

